astro/public/img/icons/dev-tools.svg

<?xml version="1.0" encoding="UTF-8"?>
<svg width="70px" height="70px" viewBox="0 0 70 70" version="1.1" xmlns="http://www.w3.org/2000/svg" xmlns:xlink="http://www.w3.org/1999/xlink">
    <title>dev-tools</title>
    <defs>
        <linearGradient x1="3.33237575%" y1="0%" x2="96.6676242%" y2="100%" id="linearGradient-1">
            <stop stop-color="#A4AEBE" offset="0%"></stop>
            <stop stop-color="#2D53F5" offset="100%"></stop>
        </linearGradient>
        <linearGradient x1="3.33223903%" y1="0%" x2="96.667761%" y2="100%" id="linearGradient-2">
            <stop stop-color="#A4AEBE" offset="0%"></stop>
            <stop stop-color="#2D53F5" offset="100%"></stop>
        </linearGradient>
    </defs>
    <g id="dev-tools" stroke="none" stroke-width="1" fill="none" fill-rule="evenodd">
        <g id="008-thor-hammer" transform="translate(6.000000, 6.000000)" fill-rule="nonzero">
            <path d="M56.8236655,27.0300216 L53.6748603,20.5113367 C53.5945927,20.345169 53.4889423,20.1935207 53.3620282,20.0621537 L49.0323654,15.5805795 L50.213223,14.35829 C52.1664753,12.3365056 52.1664753,9.04679891 50.213223,7.0248992 C48.2598594,5.00299949 45.0816636,5.00299949 43.1284113,7.0248992 L41.9475537,8.24718862 L37.6178909,3.76561438 C37.4909768,3.63424736 37.344469,3.52489008 37.1839338,3.4418062 L30.8862121,0.182521385 C30.243292,-0.150159823 29.4667782,-0.0198299144 28.9585653,0.506329557 L17.9376357,11.9139417 C17.4294228,12.4399859 17.3033993,13.2437446 17.6248037,13.9092223 L20.7736089,20.4279071 C20.8538764,20.5940749 20.9595269,20.7457231 21.0864409,20.8770902 L25.4161038,25.3586644 L7.42636645,43.979478 L2.70716646,46.072823 C2.18214293,46.3057113 1.71111356,46.6358574 1.30721506,47.0540424 C-0.435738352,48.8581494 -0.435738352,51.7938565 1.30721506,53.5979636 L5.2188407,57.6468333 C6.9617941,59.4510556 9.79798988,59.4510556 11.5409433,57.6468333 C11.9448418,57.2287635 12.2637969,56.7412075 12.4889024,56.1976477 L14.5112895,51.3129841 L32.5010268,32.6920552 L36.8306896,37.1736295 C36.9576037,37.3049965 37.1041115,37.4143538 37.2646467,37.4974377 L43.5622571,40.7567225 C44.2051771,41.0894037 44.9816909,40.9590738 45.4899039,40.4329143 L56.5108334,29.0253022 C57.0191577,28.499258 57.1450699,27.6954992 56.8236655,27.0300216 Z M45.4899039,9.46936281 C46.1409509,8.79547306 47.2003495,8.79547306 47.8515078,9.46936281 C48.5026661,10.1432526 48.5026661,11.2399367 47.8515078,11.9138264 L46.6706502,13.1361159 L44.3090463,10.6916522 L45.4899039,9.46936281 Z M21.1503433,13.4774396 L30.4690655,3.83175882 L33.6178707,5.46140123 L22.7246346,16.7368397 L21.1503433,13.4774396 Z M9.41914021,54.8356944 C9.36225153,54.9731688 9.28153862,55.0965847 9.17933939,55.2023697 C8.73847994,55.6586972 8.02130404,55.6586972 7.5804446,55.2023697 L3.66881896,51.1535 C3.22807084,50.6971724 3.22807084,49.9548336 3.66881896,49.498506 C3.77101819,49.392721 3.89013931,49.3091762 4.02284245,49.2502915 L7.99848177,47.4867469 L11.1229061,50.7207954 L9.41914021,54.8356944 Z M13.105215,47.8793499 L10.7436111,45.4348863 L14.9956782,41.0336303 L17.3572821,43.4780939 L13.105215,47.8793499 Z M19.718886,41.0336303 L17.3572821,38.5891667 L21.3866929,34.4183792 L23.7482968,36.8628428 L19.718886,41.0336303 Z M26.1100121,34.4182639 L23.7484082,31.9738003 L27.777819,27.8030128 L30.1394229,30.2474764 L26.1100121,34.4182639 Z M24.6289025,19.6548007 L36.4370333,7.43236742 L49.8195667,21.2844431 L38.0114359,33.5068764 L24.6289025,19.6548007 Z M43.9794037,37.107485 L40.8305985,35.4778426 L51.7238346,24.2024042 L53.2982372,27.461689 L43.9794037,37.107485 Z" id="Shape" fill="url(#linearGradient-1)"></path>
            <path d="M40.7666961,16.8028689 C38.8133325,14.7809692 35.6351367,14.7810844 33.6817731,16.8028689 C31.7285208,18.8246534 31.7284095,22.1144753 33.6817731,24.136375 C35.6351367,26.1582747 38.8133325,26.1581594 40.7666961,24.136375 C42.7199484,22.1144753 42.7200597,18.8247686 40.7666961,16.8028689 Z M38.4050922,21.6917961 C37.7540452,22.3656859 36.6946466,22.3658011 36.0434883,21.6917961 C35.39233,21.0177911 35.3924413,19.9212223 36.0434883,19.2473325 C36.6946466,18.5733275 37.7539339,18.5733275 38.4050922,19.2473325 C39.0562505,19.9213375 39.0561392,21.0179064 38.4050922,21.6917961 Z" id="Shape" fill="url(#linearGradient-2)"></path>
        </g>
    </g>
</svg>

<svg xmlns="http://www.w3.org/2000/svg" width="70" height="70"><defs><linearGradient id="a" x1="3.332%" x2="96.668%" y1="0%" y2="100%"><stop offset="0%" stop-color="#A4AEBE"/><stop offset="100%" stop-color="#2D53F5"/></linearGradient><linearGradient id="b" x1="3.332%" x2="96.668%" y1="0%" y2="100%"><stop offset="0%" stop-color="#A4AEBE"/><stop offset="100%" stop-color="#2D53F5"/></linearGradient></defs><g fill="none"><path fill="url(#a)" d="m56.824 27.03-3.15-6.519a1.728 1.728 0 0 0-.312-.449l-4.33-4.481 1.181-1.223c1.953-2.021 1.953-5.311 0-7.333a4.896 4.896 0 0 0-7.085 0l-1.18 1.222-4.33-4.481a1.673 1.673 0 0 0-.434-.324L30.886.182a1.628 1.628 0 0 0-1.927.324L17.938 11.914a1.774 1.774 0 0 0-.313 1.995l3.149 6.519c.08.166.186.318.312.45l4.33 4.48L7.426 43.98l-4.719 2.094a4.445 4.445 0 0 0-1.4.981c-1.743 1.804-1.743 4.74 0 6.544l3.912 4.049a4.369 4.369 0 0 0 6.322 0 4.62 4.62 0 0 0 .948-1.45l2.022-4.884 17.99-18.62 4.33 4.48c.127.132.273.241.434.324l6.297 3.26a1.63 1.63 0 0 0 1.928-.324l11.02-11.408c.51-.526.635-1.33.314-1.995ZM45.49 9.47a1.632 1.632 0 0 1 2.362 0c.65.673.65 1.77 0 2.444l-1.181 1.222-2.362-2.444 1.18-1.223Zm-24.34 4.007 9.32-9.645 3.148 1.63-10.893 11.275-1.575-3.26ZM9.42 54.836c-.058.137-.138.26-.24.366a1.105 1.105 0 0 1-1.6 0l-3.91-4.048a1.201 1.201 0 0 1 0-1.655 1.12 1.12 0 0 1 .354-.249l3.975-1.763 3.125 3.234-1.704 4.115Zm3.685-6.957-2.361-2.444 4.252-4.401 2.361 2.444-4.252 4.401Zm6.614-6.845-2.362-2.445 4.03-4.17 2.361 2.444-4.03 4.17Zm6.391-6.616-2.362-2.444 4.03-4.171 2.361 2.444-4.029 4.171Zm-1.481-14.763L36.437 7.432 49.82 21.284 38.01 33.507 24.63 19.655Zm19.35 17.452-3.148-1.63 10.893-11.275 1.574 3.26-9.319 9.645Z" transform="translate(6 6)"/><path fill="url(#b)" d="M40.767 16.803a4.896 4.896 0 0 0-7.085 0c-1.953 2.022-1.954 5.311 0 7.333a4.896 4.896 0 0 0 7.085 0c1.953-2.022 1.953-5.311 0-7.333Zm-2.362 4.889a1.632 1.632 0 0 1-2.362 0 1.774 1.774 0 0 1 0-2.445 1.632 1.632 0 0 1 2.362 0c.651.674.651 1.77 0 2.445Z" transform="translate(6 6)"/></g></svg>
